X: 8072
T: Connor O'Reilly
R: barndance
M: 4/4
K: Aminor
AG|E2 AB cBcd|e2 ab a2 ga|(3gab ef e2 dc|g^fga aged|
c2 BA (3ABc BA|GEGA G2 ed|c2 BA ABcd|e2 e=f e2 dc|
dcde d2 e^f|g2 ed e^fge|a2 a2 (3abc' ba|g2 ^fe dgfe|
dcBA G2 ed|cBAG EDEG|A4 A4||
cd|e2 dc d2 cB|c2 AB AGED|GFGA GEDE|G3A G2 cd|
e2 dc g2 =fe|agab (3abc' ba|g2 =fe dcde|d4 d3B|
c2 g2 c2 g2|e^fga g2 ed|e2 ab c'bag|a2 a2 (3abc' ba|
g2 ^fe dg^fe|dcBA G2 ed|cBAG EDEG|A4 A4||

